X:31
T:Lord Nelsonâ€™s Hornpipe. JBs.031
T:Saxonâ€™s Hp,aka. JBs.031
S:Jas.Blackshaw MS, 1837, N.Shropshire
Z:Tony Weatherall 2006
M:4/4
L:1/8
Q:1/2=90
A:North Shropshire
R:.Hornpipe
K:C
G>E|C2c4B>c|d>BG>B d2B>d|e>ce>c f>df>d|g>e c>e d2GE|!
C2c4B>c|d>B G>B â€œ*â€d2B>c|d>B d>B cAFA|G2G2G2:|!
|:e>f|g>fe>d c>BA>G|A2F2F2f>g|a>gf>e d>cB>A|B2G2G2e>f|!
gege fafa|gege fafa|geaf edcB|c2c2c2:|

